X:3
T:Crop The Croppies. Car.03
M:C|
L:1/8
Q:1/2=90
S:CarlisleMS,Anon.c1812.AGG’s transcription
R:.Country dance
O:England
A:Carlisle
Z:vmp.Chris Partington
K:G
g>dB>d g>dB>d |g>af>g a2a2|g>ab>g d’>ba>g|f>ga>f|g2g2:|!
|:d2d>B d2d>B|e>dc>B c2A2|c2c>A c2″^’or f'”c>g|d>cB>A G2G,2:|

